X: 122
T: Er guniang liaobing
L: 1/16
M: 2/4
K: F
c2 c2 B2 c2 [I:setbarnb 1]| 
f2> d2 B2 G2 | 
c2 d f B2 B G | 
G B A2G4 | 
G2 G2 F2 G2 | 
c f d c B c G2 | 
c2 d f B2 B G | 
G F E2F4 | 
G B G F G2 z2 | 
c4E4 | 
G2 G B G F E2 | 
C2 B,2C4 |]

@@@ Tune index: 8996
